X:33
T:T021A- The Drummer
S:The Merry Medley, 1744
Q:1/4=60
L:1/4
M:C|
K:Gm
G/4A/4|G3/4A/4B3/4G/4 DD3/4E/4|FF3/4G/4 A3/4B/4c3/4A/4|\
G3/4 A/4B3/4A/4 DD3/4E/4|d/c/B/A/ G/4G/4G/::F/|\
B/4B/4B/ B/d/ c/4c/4c/ c/e/|B/4B/4B/ B/d/ c/4B/4A/4G/4 F/A/|\
B/4B/4B/ B/d/ c/4c/4c/ c/e/|d/c/B/A/ G/4G/4G/G/:|]

